Origami/16x16/apps/desmume.svg

<svg width="16" height="16" version="1.1" viewBox="0 0 16 16" xmlns="http://www.w3.org/2000/svg">
 <rect transform="matrix(0,-1,-1,0,0,0)" x="-16" y="-16" width="16" height="16" rx=".8" ry=".8" style="fill:#9293ff"/>
 <path d="m16 15.2v-7.2h-16v7.2c0 0.4432 0.3568 0.8 0.8 0.8h14.4c0.4432 0 0.8-0.3568 0.8-0.8z" style="fill:#6469bb"/>
 <path d="m3 1h10v6h-10m0-6" style="fill:#3e3e3e"/>
 <path d="m5 9h6v6h-6m0-6" style="fill:#3e3e3e"/>
 <g transform="matrix(.4 0 0 .4 -1.4 -1.5999985)" style="opacity:.2">
  <rect x="6" y="15" width="4" height="1"/>
  <rect x="6" y="17" width="4" height="1"/>
  <rect x="6" y="19" width="4" height="1"/>
 </g>
 <g transform="matrix(.4 0 0 .4 11 -1.5999985)" style="opacity:.2">
  <rect x="6" y="15" width="4" height="1"/>
  <rect x="6" y="17" width="4" height="1"/>
  <rect x="6" y="19" width="4" height="1"/>
 </g>
 <rect y="8" width="16" height="1" style="opacity:.2"/>
 <path d="m2 10v2h-2v1h2v2h1v-2h2v-1h-2v-2z" style="fill:#cccccc"/>
 <path d="m13 10v1h1v-1zm-2 2v1h1v-1zm4 0v1h1v-1zm-2 2v1h1v-1z" style="fill:#cccccc"/>
</svg>

<svg xmlns="http://www.w3.org/2000/svg" width="16" height="16" version="1.1" viewBox="0 0 16 16">
 <rect style="fill:#9293ff" width="16" height="16" x="-16" y="-16" rx=".8" ry=".8" transform="matrix(0,-1,-1,0,0,0)"/>
 <path style="fill:#6469bb" d="M 16,15.2 V 8 H 0 v 7.2 C 0,15.6432 0.3568,16 0.8,16 h 14.4 c 0.4432,0 0.8,-0.3568 0.8,-0.8 z"/>
 <path style="fill:#3e3e3e" d="M 3,1 H 13 V 7 H 3 M 3,1"/>
 <path style="fill:#3e3e3e" d="m 5,9 h 6 v 6 H 5 M 5,9"/>
 <g style="opacity:0.2" transform="matrix(0.4,0,0,0.4,-1.4,-1.5999985)">
  <rect width="4" height="1" x="6" y="15"/>
  <rect width="4" height="1" x="6" y="17"/>
  <rect width="4" height="1" x="6" y="19"/>
 </g>
 <g style="opacity:0.2" transform="matrix(0.4,0,0,0.4,11,-1.5999985)">
  <rect width="4" height="1" x="6" y="15"/>
  <rect width="4" height="1" x="6" y="17"/>
  <rect width="4" height="1" x="6" y="19"/>
 </g>
 <rect style="opacity:0.2" width="16" height="1" x="0" y="8"/>
 <path style="fill:#cccccc" d="m 2,10 v 2 H 0 v 1 h 2 v 2 H 3 V 13 H 5 V 12 H 3 v -2 z"/>
 <path style="fill:#cccccc" d="m 13,10 v 1 h 1 v -1 z m -2,2 v 1 h 1 v -1 z m 4,0 v 1 h 1 v -1 z m -2,2 v 1 h 1 v -1 z"/>
</svg>
